( Generated by Carbide Copper )
( Material Size )
( X= 152.400, Y= 101.600, Z= 1.580 )
()
G17
G21
G54
G90
M05
(  )
T502 M06
( Contour )
M03 S10000
G0  X50.014 Y24.826
G0  Z3.000
G01 F400 Z0
G01 F400 Z-0.100
G01F400X49.870 Y24.796
X49.737 Y24.736
X49.618 Y24.650
X49.520 Y24.542
X49.447 Y24.415
X49.402 Y24.275
X49.390 Y24.139
X47.878 Y22.628
X36.153 Y22.628
X36.089 Y22.699
X35.959 Y22.793
X35.813 Y22.858
X35.657 Y22.891
X35.497 Y22.891
X35.340 Y22.858
X35.194 Y22.793
X35.065 Y22.699
X34.958 Y22.580
X34.878 Y22.441
X34.828 Y22.289
X34.812 Y22.130
X34.828 Y21.971
X34.878 Y21.819
X34.958 Y21.680
X35.065 Y21.561
X35.194 Y21.467
X35.340 Y21.402
X35.497 Y21.369
X35.657 Y21.369
X35.813 Y21.402
X35.959 Y21.467
X36.089 Y21.561
X36.153 Y21.633
X48.139 Y21.633
X48.241 Y21.654
X48.337 Y21.697
X48.420 Y21.757
X50.097 Y23.413
X51.937 Y21.574
X51.937 Y18.206
X49.919 Y16.189
X49.852 Y16.114
X49.800 Y16.024
X49.767 Y15.924
X49.757 Y15.823
X49.757 Y9.916
X49.690 Y9.842
X49.617 Y9.715
X49.572 Y9.576
X49.556 Y9.430
X49.572 Y9.284
X49.617 Y9.145
X49.690 Y9.018
X49.788 Y8.910
X49.907 Y8.824
X50.040 Y8.764
X50.184 Y8.734
X50.330 Y8.734
X50.473 Y8.764
X50.607 Y8.824
X50.725 Y8.909
X50.747 Y8.933
X50.798 Y8.933
X51.937 Y7.794
X51.937 Y6.903
X49.532 Y4.498
X18.938 Y4.498
X15.937 Y7.498
X15.950 Y7.620
X15.931 Y7.795
X15.877 Y7.962
X15.789 Y8.114
X15.671 Y8.245
X15.529 Y8.348
X15.369 Y8.420
X15.197 Y8.456
X15.021 Y8.456
X14.849 Y8.420
X14.689 Y8.348
X14.546 Y8.245
X14.429 Y8.114
X14.341 Y7.962
X14.287 Y7.795
X14.268 Y7.620
X14.287 Y7.445
X14.341 Y7.278
X14.429 Y7.126
X14.546 Y6.995
X14.689 Y6.892
X14.849 Y6.821
X15.021 Y6.784
X15.197 Y6.784
X15.232 Y6.791
X18.396 Y3.627
X18.479 Y3.567
X18.575 Y3.524
X18.677 Y3.502
X49.793 Y3.502
X49.895 Y3.524
X49.991 Y3.567
X50.074 Y3.627
X52.774 Y6.328
X52.842 Y6.402
X52.894 Y6.493
X52.926 Y6.592
X52.937 Y6.694
X52.937 Y8.003
X52.926 Y8.104
X52.894 Y8.204
X52.842 Y8.294
X52.774 Y8.369
X51.340 Y9.803
X51.257 Y9.863
X51.161 Y9.906
X51.059 Y9.928
X50.757 Y9.928
X50.757 Y15.614
X52.774 Y17.631
X52.842 Y17.706
X52.894 Y17.797
X52.926 Y17.896
X52.937 Y17.997
X52.937 Y21.783
X52.926 Y21.884
X52.894 Y21.983
X52.842 Y22.074
X52.774 Y22.149
X50.785 Y24.153
X50.772 Y24.276
X50.727 Y24.415
X50.653 Y24.542
X50.555 Y24.650
X50.437 Y24.736
X50.303 Y24.796
X50.160 Y24.826
X50.014 Y24.826
G0 Z3.000
G0  X15.153 Y24.575
G0  Z3.000
G01 F400 Z0
G01 F400 Z-0.100
G01F400X14.951 Y24.532
X14.762 Y24.447
X14.594 Y24.326
X14.456 Y24.172
X14.352 Y23.993
X14.288 Y23.796
X14.267 Y23.590
X14.288 Y23.384
X14.352 Y23.187
X14.456 Y23.008
X14.594 Y22.854
X14.762 Y22.733
X14.951 Y22.648
X15.153 Y22.605
X15.360 Y22.605
X15.563 Y22.648
X15.752 Y22.733
X15.919 Y22.854
X16.058 Y23.008
X16.161 Y23.187
X16.225 Y23.384
X16.247 Y23.590
X16.225 Y23.796
X16.161 Y23.993
X16.058 Y24.172
X15.919 Y24.326
X15.752 Y24.447
X15.563 Y24.532
X15.360 Y24.575
X15.153 Y24.575
G0 Z3.000
G0  X6.489 Y23.730
G0  Z3.000
G01 F400 Z0
G01 F400 Z-0.100
G01F400X5.838 Y23.562
X5.496 Y22.982
X5.665 Y22.331
X6.244 Y21.990
X6.896 Y22.158
X7.016 Y22.363
X10.368 Y22.363
X12.053 Y20.677
X12.137 Y20.617
X12.232 Y20.574
X12.335 Y20.553
X14.407 Y20.553
X14.456 Y20.468
X14.594 Y20.314
X14.762 Y20.193
X14.951 Y20.108
X15.153 Y20.065
X15.360 Y20.065
X15.563 Y20.108
X15.752 Y20.193
X15.919 Y20.314
X16.058 Y20.468
X16.161 Y20.647
X16.225 Y20.844
X16.247 Y21.050
X16.225 Y21.256
X16.161 Y21.453
X16.058 Y21.632
X15.919 Y21.786
X15.752 Y21.907
X15.563 Y21.992
X15.360 Y22.035
X15.153 Y22.035
X14.951 Y21.992
X14.762 Y21.907
X14.594 Y21.786
X14.456 Y21.632
X14.407 Y21.547
X12.596 Y21.547
X10.910 Y23.233
X10.827 Y23.293
X10.731 Y23.336
X10.629 Y23.358
X7.077 Y23.358
X7.069 Y23.389
X6.489 Y23.730
G0 Z3.000
G0  X25.337 Y22.891
G0  Z3.000
G01 F400 Z0
G01 F400 Z-0.100
G01F400X25.180 Y22.858
X25.034 Y22.793
X24.905 Y22.699
X24.798 Y22.580
X24.718 Y22.441
X24.668 Y22.289
X24.652 Y22.130
X24.657 Y22.077
X21.588 Y19.008
X16.107 Y19.008
X16.058 Y19.092
X15.919 Y19.246
X15.752 Y19.367
X15.563 Y19.452
X15.360 Y19.495
X15.153 Y19.495
X14.951 Y19.452
X14.762 Y19.367
X14.594 Y19.246
X14.456 Y19.092
X14.407 Y19.008
X7.216 Y19.008
X7.069 Y19.579
X6.489 Y19.920
X5.838 Y19.752
X5.496 Y19.172
X5.665 Y18.521
X6.244 Y18.180
X6.472 Y18.239
X6.573 Y18.137
X6.657 Y18.077
X6.752 Y18.034
X6.855 Y18.012
X14.407 Y18.012
X14.456 Y17.928
X14.594 Y17.774
X14.762 Y17.653
X14.951 Y17.568
X15.153 Y17.525
X15.360 Y17.525
X15.505 Y17.556
X22.273 Y10.787
X22.357 Y10.727
X22.452 Y10.684
X22.555 Y10.662
X25.820 Y10.662
X25.869 Y10.608
X25.995 Y10.516
X26.137 Y10.453
X26.289 Y10.421
X26.444 Y10.421
X26.596 Y10.453
X26.738 Y10.516
X26.864 Y10.608
X26.968 Y10.723
X27.046 Y10.858
X27.094 Y11.006
X27.110 Y11.160
X27.094 Y11.315
X27.046 Y11.462
X26.968 Y11.597
X26.864 Y11.712
X26.738 Y11.804
X26.596 Y11.867
X26.444 Y11.899
X26.289 Y11.899
X26.137 Y11.867
X25.995 Y11.804
X25.869 Y11.712
X25.820 Y11.658
X22.816 Y11.658
X16.460 Y18.012
X21.849 Y18.012
X21.951 Y18.034
X22.047 Y18.077
X22.130 Y18.137
X25.363 Y21.369
X25.497 Y21.369
X25.653 Y21.402
X25.799 Y21.467
X25.929 Y21.561
X26.036 Y21.680
X26.116 Y21.819
X26.165 Y21.971
X26.182 Y22.130
X26.165 Y22.289
X26.116 Y22.441
X26.036 Y22.580
X25.929 Y22.699
X25.799 Y22.793
X25.653 Y22.858
X25.497 Y22.891
X25.337 Y22.891
G0 Z3.000
G0  X50.014 Y22.286
G0  Z3.000
G01 F400 Z0
G01 F400 Z-0.100
G01F400X49.870 Y22.256
X49.737 Y22.197
X49.618 Y22.110
X49.520 Y22.002
X49.447 Y21.875
X49.402 Y21.735
X49.390 Y21.599
X41.988 Y14.198
X35.174 Y14.198
X35.124 Y14.252
X34.998 Y14.344
X34.856 Y14.407
X34.704 Y14.439
X34.549 Y14.439
X34.397 Y14.407
X34.255 Y14.344
X34.129 Y14.252
X34.025 Y14.137
X33.948 Y14.002
X33.900 Y13.854
X33.884 Y13.700
X33.900 Y13.546
X33.948 Y13.398
X34.025 Y13.263
X34.129 Y13.148
X34.255 Y13.056
X34.397 Y12.993
X34.549 Y12.961
X34.704 Y12.961
X34.856 Y12.993
X34.998 Y13.056
X35.124 Y13.148
X35.174 Y13.203
X42.249 Y13.203
X42.351 Y13.224
X42.447 Y13.267
X42.530 Y13.327
X50.097 Y20.894
X50.160 Y20.894
X50.303 Y20.924
X50.437 Y20.983
X50.555 Y21.070
X50.653 Y21.178
X50.727 Y21.305
X50.772 Y21.444
X50.787 Y21.590
X50.772 Y21.736
X50.727 Y21.875
X50.653 Y22.002
X50.555 Y22.110
X50.437 Y22.197
X50.303 Y22.256
X50.160 Y22.286
X50.014 Y22.286
G0 Z3.000
G0  X26.289 Y16.979
G0  Z3.000
G01 F400 Z0
G01 F400 Z-0.100
G01F400X26.137 Y16.947
X25.995 Y16.884
X25.869 Y16.792
X25.765 Y16.677
X25.688 Y16.542
X25.640 Y16.395
X25.623 Y16.240
X25.640 Y16.085
X25.688 Y15.938
X25.765 Y15.803
X25.869 Y15.688
X25.995 Y15.596
X26.137 Y15.533
X26.289 Y15.501
X26.444 Y15.501
X26.596 Y15.533
X26.738 Y15.596
X26.864 Y15.688
X26.914 Y15.743
X34.080 Y15.743
X34.129 Y15.688
X34.255 Y15.596
X34.397 Y15.533
X34.549 Y15.501
X34.704 Y15.501
X34.856 Y15.533
X34.998 Y15.596
X35.124 Y15.688
X35.228 Y15.803
X35.306 Y15.938
X35.354 Y16.085
X35.370 Y16.240
X35.354 Y16.395
X35.306 Y16.542
X35.228 Y16.677
X35.124 Y16.792
X34.998 Y16.884
X34.856 Y16.947
X34.704 Y16.979
X34.549 Y16.979
X34.397 Y16.947
X34.255 Y16.884
X34.129 Y16.792
X34.080 Y16.738
X26.914 Y16.738
X26.864 Y16.792
X26.738 Y16.884
X26.596 Y16.947
X26.444 Y16.979
X26.289 Y16.979
G0 Z3.000
G0  X6.489 Y16.110
G0  Z3.000
G01 F400 Z0
G01 F400 Z-0.100
G01F400X5.838 Y15.942
X5.496 Y15.362
X5.665 Y14.711
X6.244 Y14.370
X6.472 Y14.429
X8.973 Y11.928
X7.077 Y11.928
X7.069 Y11.959
X6.489 Y12.300
X5.838 Y12.132
X5.496 Y11.552
X5.665 Y10.901
X6.244 Y10.560
X6.896 Y10.728
X7.016 Y10.933
X10.919 Y10.933
X11.021 Y10.954
X11.117 Y10.997
X11.200 Y11.057
X11.646 Y11.503
X16.228 Y11.503
X19.483 Y8.247
X19.567 Y8.187
X19.662 Y8.144
X19.765 Y8.123
X25.820 Y8.123
X25.869 Y8.068
X25.995 Y7.976
X26.137 Y7.913
X26.289 Y7.881
X26.444 Y7.881
X26.596 Y7.913
X26.738 Y7.976
X26.864 Y8.068
X26.968 Y8.183
X27.046 Y8.318
X27.094 Y8.466
X27.110 Y8.620
X27.094 Y8.774
X27.046 Y8.922
X26.968 Y9.057
X26.864 Y9.172
X26.738 Y9.264
X26.596 Y9.327
X26.444 Y9.359
X26.289 Y9.359
X26.137 Y9.327
X25.995 Y9.264
X25.869 Y9.172
X25.820 Y9.117
X20.026 Y9.117
X16.770 Y12.373
X16.687 Y12.433
X16.591 Y12.476
X16.489 Y12.498
X11.385 Y12.498
X11.282 Y12.476
X11.187 Y12.433
X11.103 Y12.373
X10.658 Y11.928
X10.386 Y11.928
X7.222 Y15.091
X7.237 Y15.118
X7.069 Y15.769
X6.489 Y16.110
G0 Z3.000
G0  X26.289 Y14.439
G0  Z3.000
G01 F400 Z0
G01 F400 Z-0.100
G01F400X26.137 Y14.407
X25.995 Y14.344
X25.869 Y14.252
X25.765 Y14.137
X25.688 Y14.002
X25.640 Y13.854
X25.623 Y13.700
X25.640 Y13.546
X25.688 Y13.398
X25.765 Y13.263
X25.869 Y13.148
X25.995 Y13.056
X26.137 Y12.993
X26.289 Y12.961
X26.444 Y12.961
X26.596 Y12.993
X26.738 Y13.056
X26.864 Y13.148
X26.968 Y13.263
X27.046 Y13.398
X27.094 Y13.546
X27.110 Y13.700
X27.094 Y13.854
X27.046 Y14.002
X26.968 Y14.137
X26.864 Y14.252
X26.738 Y14.344
X26.596 Y14.407
X26.444 Y14.439
X26.289 Y14.439
G0 Z3.000
G0  X34.549 Y11.899
G0  Z3.000
G01 F400 Z0
G01 F400 Z-0.100
G01F400X34.397 Y11.867
X34.255 Y11.804
X34.129 Y11.712
X34.025 Y11.597
X33.948 Y11.462
X33.900 Y11.315
X33.884 Y11.160
X33.900 Y11.006
X33.948 Y10.858
X34.025 Y10.723
X34.129 Y10.608
X34.255 Y10.516
X34.397 Y10.453
X34.549 Y10.421
X34.704 Y10.421
X34.856 Y10.453
X34.998 Y10.516
X35.124 Y10.608
X35.174 Y10.662
X45.778 Y10.662
X49.559 Y6.867
X49.572 Y6.744
X49.617 Y6.605
X49.690 Y6.478
X49.788 Y6.370
X49.907 Y6.284
X50.040 Y6.224
X50.184 Y6.194
X50.330 Y6.194
X50.473 Y6.224
X50.607 Y6.284
X50.725 Y6.370
X50.823 Y6.478
X50.897 Y6.605
X50.942 Y6.744
X50.957 Y6.890
X50.942 Y7.036
X50.897 Y7.175
X50.823 Y7.302
X50.725 Y7.410
X50.607 Y7.497
X50.473 Y7.556
X50.330 Y7.586
X50.267 Y7.586
X46.320 Y11.533
X46.237 Y11.593
X46.141 Y11.636
X46.039 Y11.658
X35.174 Y11.658
X35.124 Y11.712
X34.998 Y11.804
X34.856 Y11.867
X34.704 Y11.899
X34.549 Y11.899
G0 Z3.000
G0  X14.977 Y10.996
G0  Z3.000
G01 F400 Z0
G01 F400 Z-0.100
G01F400X14.805 Y10.959
X14.644 Y10.888
X14.502 Y10.785
X14.490 Y10.771
X14.446 Y10.780
X12.667 Y10.780
X12.565 Y10.759
X12.470 Y10.716
X12.386 Y10.655
X9.848 Y8.117
X7.077 Y8.117
X7.069 Y8.149
X6.489 Y8.490
X5.838 Y8.322
X5.496 Y7.742
X5.665 Y7.091
X6.244 Y6.750
X6.896 Y6.918
X7.016 Y7.123
X10.109 Y7.123
X10.211 Y7.144
X10.307 Y7.187
X10.390 Y7.247
X12.928 Y9.785
X14.199 Y9.776
X14.267 Y9.726
X14.362 Y9.684
X14.375 Y9.681
X14.384 Y9.666
X14.502 Y9.535
X14.644 Y9.432
X14.805 Y9.360
X14.977 Y9.324
X15.152 Y9.324
X15.189 Y9.332
X18.913 Y5.627
X18.997 Y5.567
X19.092 Y5.524
X19.195 Y5.503
X33.489 Y5.503
X33.591 Y5.524
X33.687 Y5.567
X33.770 Y5.627
X34.964 Y6.821
X35.032 Y6.896
X35.084 Y6.987
X35.116 Y7.086
X35.127 Y7.187
X35.140 Y8.085
X35.228 Y8.183
X35.306 Y8.318
X35.354 Y8.466
X35.370 Y8.620
X35.354 Y8.774
X35.306 Y8.922
X35.228 Y9.057
X35.124 Y9.172
X34.998 Y9.264
X34.856 Y9.327
X34.704 Y9.359
X34.549 Y9.359
X34.397 Y9.327
X34.255 Y9.264
X34.129 Y9.172
X34.025 Y9.057
X33.948 Y8.922
X33.900 Y8.774
X33.884 Y8.620
X33.900 Y8.466
X33.948 Y8.318
X34.026 Y8.183
X34.127 Y8.075
X34.127 Y7.396
X33.228 Y6.498
X19.455 Y6.498
X15.893 Y10.040
X15.905 Y10.160
X15.887 Y10.335
X15.833 Y10.502
X15.745 Y10.654
X15.627 Y10.785
X15.485 Y10.888
X15.324 Y10.959
X15.152 Y10.996
X14.977 Y10.996
G0 Z3.000
G0  X50.004 Y24.916
G0  Z3.000
G01 F400 Z0
G01 F400 Z-0.100
G01F400X49.843 Y24.882
X49.691 Y24.815
X49.558 Y24.718
X49.447 Y24.595
X49.364 Y24.452
X49.313 Y24.293
X49.303 Y24.180
X47.841 Y22.718
X36.193 Y22.718
X36.149 Y22.766
X36.005 Y22.871
X35.841 Y22.944
X35.666 Y22.981
X35.487 Y22.981
X35.312 Y22.944
X35.149 Y22.871
X35.004 Y22.766
X34.884 Y22.633
X34.795 Y22.478
X34.740 Y22.308
X34.721 Y22.130
X34.740 Y21.952
X34.795 Y21.782
X34.884 Y21.627
X35.004 Y21.494
X35.149 Y21.389
X35.312 Y21.316
X35.487 Y21.279
X35.666 Y21.279
X35.841 Y21.316
X36.005 Y21.389
X36.149 Y21.494
X36.193 Y21.543
X48.148 Y21.543
X48.269 Y21.568
X48.382 Y21.618
X48.479 Y21.689
X50.097 Y23.286
X51.847 Y21.537
X51.847 Y18.244
X49.854 Y16.251
X49.779 Y16.167
X49.717 Y16.060
X49.679 Y15.943
X49.667 Y15.827
X49.667 Y9.950
X49.617 Y9.895
X49.534 Y9.752
X49.483 Y9.594
X49.466 Y9.430
X49.483 Y9.266
X49.534 Y9.108
X49.617 Y8.965
X49.728 Y8.842
X49.861 Y8.745
X50.013 Y8.678
X50.174 Y8.644
X50.339 Y8.644
X50.501 Y8.678
X50.652 Y8.745
X50.772 Y8.832
X51.847 Y7.756
X51.847 Y6.940
X49.494 Y4.588
X18.975 Y4.588
X16.031 Y7.532
X16.040 Y7.620
X16.020 Y7.814
X15.960 Y7.999
X15.862 Y8.168
X15.732 Y8.312
X15.575 Y8.427
X15.397 Y8.506
X15.206 Y8.546
X15.012 Y8.546
X14.821 Y8.506
X14.643 Y8.427
X14.486 Y8.312
X14.356 Y8.168
X14.258 Y7.999
X14.198 Y7.814
X14.178 Y7.620
X14.198 Y7.427
X14.258 Y7.241
X14.356 Y7.073
X14.486 Y6.928
X14.643 Y6.814
X14.821 Y6.735
X15.012 Y6.694
X15.202 Y6.694
X18.337 Y3.559
X18.434 Y3.488
X18.547 Y3.438
X18.668 Y3.413
X49.802 Y3.413
X49.923 Y3.438
X50.036 Y3.488
X50.133 Y3.559
X52.839 Y6.266
X52.915 Y6.349
X52.977 Y6.456
X53.015 Y6.574
X53.027 Y6.689
X53.027 Y8.007
X53.015 Y8.123
X52.977 Y8.240
X52.915 Y8.347
X52.839 Y8.431
X51.399 Y9.871
X51.302 Y9.942
X51.189 Y9.992
X51.068 Y10.018
X50.847 Y10.018
X50.847 Y15.577
X52.839 Y17.569
X52.915 Y17.653
X52.977 Y17.760
X53.015 Y17.877
X53.027 Y17.993
X53.027 Y21.787
X53.015 Y21.903
X52.977 Y22.020
X52.915 Y22.127
X52.840 Y22.211
X50.871 Y24.194
X50.860 Y24.294
X50.809 Y24.452
X50.727 Y24.595
X50.616 Y24.718
X50.482 Y24.815
X50.331 Y24.882
X50.169 Y24.916
X50.004 Y24.916
G0 Z3.000
G0  X15.144 Y24.665
G0  Z3.000
G01 F400 Z0
G01 F400 Z-0.100
G01F400X14.923 Y24.618
X14.716 Y24.526
X14.534 Y24.393
X14.383 Y24.225
X14.270 Y24.030
X14.200 Y23.815
X14.176 Y23.590
X14.200 Y23.365
X14.270 Y23.151
X14.383 Y22.955
X14.534 Y22.787
X14.716 Y22.654
X14.923 Y22.562
X15.144 Y22.515
X15.370 Y22.515
X15.591 Y22.562
X15.797 Y22.654
X15.980 Y22.787
X16.131 Y22.955
X16.244 Y23.151
X16.314 Y23.365
X16.337 Y23.590
X16.314 Y23.815
X16.244 Y24.030
X16.131 Y24.225
X15.980 Y24.393
X15.797 Y24.526
X15.591 Y24.618
X15.370 Y24.665
X15.144 Y24.665
G0 Z3.000
G0  X6.503 Y23.827
G0  Z3.000
G01 F400 Z0
G01 F400 Z-0.100
G01F400X5.779 Y23.640
X5.400 Y22.996
X5.587 Y22.273
X6.231 Y21.893
X6.954 Y22.080
X7.068 Y22.273
X10.331 Y22.273
X11.995 Y20.609
X12.091 Y20.538
X12.204 Y20.488
X12.325 Y20.463
X14.355 Y20.463
X14.383 Y20.415
X14.534 Y20.247
X14.716 Y20.114
X14.923 Y20.022
X15.144 Y19.975
X15.370 Y19.975
X15.591 Y20.022
X15.797 Y20.114
X15.980 Y20.247
X16.131 Y20.415
X16.244 Y20.611
X16.314 Y20.825
X16.337 Y21.050
X16.314 Y21.275
X16.244 Y21.489
X16.131 Y21.685
X15.980 Y21.853
X15.797 Y21.986
X15.591 Y22.078
X15.370 Y22.125
X15.144 Y22.125
X14.923 Y22.078
X14.716 Y21.986
X14.534 Y21.853
X14.383 Y21.685
X14.355 Y21.637
X12.633 Y21.637
X10.969 Y23.301
X10.872 Y23.372
X10.759 Y23.422
X10.638 Y23.448
X7.147 Y23.448
X6.503 Y23.827
G0 Z3.000
G0  X25.327 Y22.981
G0  Z3.000
G01 F400 Z0
G01 F400 Z-0.100
G01F400X25.152 Y22.944
X24.989 Y22.871
X24.844 Y22.766
X24.724 Y22.633
X24.635 Y22.478
X24.580 Y22.308
X24.561 Y22.130
X24.563 Y22.110
X21.551 Y19.098
X16.158 Y19.098
X16.131 Y19.145
X15.980 Y19.313
X15.797 Y19.446
X15.591 Y19.538
X15.370 Y19.585
X15.144 Y19.585
X14.923 Y19.538
X14.716 Y19.446
X14.534 Y19.313
X14.383 Y19.145
X14.355 Y19.098
X7.286 Y19.098
X7.147 Y19.637
X6.503 Y20.017
X5.779 Y19.830
X5.400 Y19.186
X5.587 Y18.463
X6.231 Y18.083
X6.445 Y18.139
X6.514 Y18.069
X6.611 Y17.998
X6.724 Y17.948
X6.845 Y17.922
X14.355 Y17.922
X14.383 Y17.875
X14.534 Y17.707
X14.716 Y17.574
X14.923 Y17.482
X15.144 Y17.435
X15.370 Y17.435
X15.476 Y17.458
X22.215 Y10.719
X22.311 Y10.648
X22.424 Y10.598
X22.545 Y10.572
X25.780 Y10.572
X25.809 Y10.540
X25.950 Y10.438
X26.109 Y10.367
X26.280 Y10.331
X26.454 Y10.331
X26.624 Y10.367
X26.784 Y10.438
X26.925 Y10.540
X27.041 Y10.670
X27.129 Y10.821
X27.182 Y10.987
X27.201 Y11.160
X27.182 Y11.333
X27.129 Y11.499
X27.041 Y11.650
X26.925 Y11.780
X26.784 Y11.882
X26.624 Y11.953
X26.454 Y11.989
X26.280 Y11.989
X26.109 Y11.953
X25.950 Y11.882
X25.809 Y11.780
X25.780 Y11.748
X22.853 Y11.748
X16.678 Y17.922
X21.858 Y17.922
X21.979 Y17.948
X22.092 Y17.998
X22.189 Y18.069
X25.400 Y21.279
X25.506 Y21.279
X25.681 Y21.316
X25.845 Y21.389
X25.989 Y21.494
X26.109 Y21.627
X26.199 Y21.782
X26.254 Y21.952
X26.273 Y22.130
X26.254 Y22.308
X26.199 Y22.478
X26.109 Y22.633
X25.989 Y22.766
X25.845 Y22.871
X25.681 Y22.944
X25.506 Y22.981
X25.327 Y22.981
G0 Z3.000
G0  X50.004 Y22.376
G0  Z3.000
G01 F400 Z0
G01 F400 Z-0.100
G01F400X49.843 Y22.342
X49.691 Y22.275
X49.558 Y22.178
X49.447 Y22.055
X49.364 Y21.912
X49.313 Y21.753
X49.303 Y21.640
X41.951 Y14.288
X35.214 Y14.288
X35.185 Y14.320
X35.044 Y14.422
X34.884 Y14.493
X34.714 Y14.529
X34.540 Y14.529
X34.369 Y14.493
X34.210 Y14.422
X34.069 Y14.320
X33.952 Y14.190
X33.865 Y14.039
X33.811 Y13.873
X33.793 Y13.700
X33.811 Y13.527
X33.865 Y13.361
X33.952 Y13.210
X34.069 Y13.080
X34.210 Y12.978
X34.369 Y12.907
X34.540 Y12.871
X34.714 Y12.871
X34.884 Y12.907
X35.044 Y12.978
X35.185 Y13.080
X35.214 Y13.113
X42.258 Y13.113
X42.379 Y13.138
X42.492 Y13.188
X42.589 Y13.259
X50.134 Y20.804
X50.169 Y20.804
X50.331 Y20.838
X50.482 Y20.905
X50.616 Y21.002
X50.727 Y21.125
X50.809 Y21.268
X50.860 Y21.426
X50.878 Y21.590
X50.860 Y21.754
X50.809 Y21.912
X50.727 Y22.055
X50.616 Y22.178
X50.482 Y22.275
X50.331 Y22.342
X50.169 Y22.376
X50.004 Y22.376
G0 Z3.000
G0  X26.280 Y17.069
G0  Z3.000
G01 F400 Z0
G01 F400 Z-0.100
G01F400X26.109 Y17.033
X25.950 Y16.962
X25.809 Y16.860
X25.692 Y16.730
X25.605 Y16.579
X25.551 Y16.413
X25.533 Y16.240
X25.551 Y16.067
X25.605 Y15.901
X25.692 Y15.750
X25.809 Y15.620
X25.950 Y15.518
X26.109 Y15.447
X26.280 Y15.411
X26.454 Y15.411
X26.624 Y15.447
X26.784 Y15.518
X26.925 Y15.620
X26.954 Y15.653
X34.040 Y15.653
X34.069 Y15.620
X34.210 Y15.518
X34.369 Y15.447
X34.540 Y15.411
X34.714 Y15.411
X34.884 Y15.447
X35.044 Y15.518
X35.185 Y15.620
X35.301 Y15.750
X35.389 Y15.901
X35.442 Y16.067
X35.461 Y16.240
X35.442 Y16.413
X35.389 Y16.579
X35.301 Y16.730
X35.185 Y16.860
X35.044 Y16.962
X34.884 Y17.033
X34.714 Y17.069
X34.540 Y17.069
X34.369 Y17.033
X34.210 Y16.962
X34.069 Y16.860
X34.040 Y16.828
X26.954 Y16.828
X26.925 Y16.860
X26.784 Y16.962
X26.624 Y17.033
X26.454 Y17.069
X26.280 Y17.069
G0 Z3.000
G0  X6.503 Y16.207
G0  Z3.000
G01 F400 Z0
G01 F400 Z-0.100
G01F400X5.779 Y16.020
X5.400 Y15.376
X5.587 Y14.652
X6.231 Y14.273
X6.445 Y14.329
X8.756 Y12.018
X7.147 Y12.018
X6.503 Y12.397
X5.779 Y12.210
X5.400 Y11.566
X5.587 Y10.843
X6.231 Y10.463
X6.954 Y10.650
X7.068 Y10.843
X10.928 Y10.843
X11.049 Y10.868
X11.162 Y10.918
X11.259 Y10.989
X11.683 Y11.413
X16.191 Y11.413
X19.425 Y8.179
X19.521 Y8.108
X19.634 Y8.058
X19.755 Y8.033
X25.780 Y8.033
X25.809 Y8.000
X25.950 Y7.898
X26.109 Y7.827
X26.280 Y7.791
X26.454 Y7.791
X26.624 Y7.827
X26.784 Y7.898
X26.925 Y8.000
X27.041 Y8.130
X27.129 Y8.281
X27.182 Y8.447
X27.201 Y8.620
X27.182 Y8.793
X27.129 Y8.959
X27.041 Y9.110
X26.925 Y9.240
X26.784 Y9.342
X26.624 Y9.413
X26.454 Y9.449
X26.280 Y9.449
X26.109 Y9.413
X25.950 Y9.342
X25.809 Y9.240
X25.780 Y9.207
X20.063 Y9.207
X16.829 Y12.441
X16.732 Y12.512
X16.619 Y12.562
X16.498 Y12.588
X11.375 Y12.588
X11.254 Y12.562
X11.141 Y12.512
X11.045 Y12.441
X10.621 Y12.018
X10.423 Y12.018
X7.333 Y15.107
X7.147 Y15.828
X6.503 Y16.207
G0 Z3.000
G0  X26.280 Y14.529
G0  Z3.000
G01 F400 Z0
G01 F400 Z-0.100
G01F400X26.109 Y14.493
X25.950 Y14.422
X25.809 Y14.320
X25.692 Y14.190
X25.605 Y14.039
X25.551 Y13.873
X25.533 Y13.700
X25.551 Y13.527
X25.605 Y13.361
X25.692 Y13.210
X25.809 Y13.080
X25.950 Y12.978
X26.109 Y12.907
X26.280 Y12.871
X26.454 Y12.871
X26.624 Y12.907
X26.784 Y12.978
X26.925 Y13.080
X27.041 Y13.210
X27.129 Y13.361
X27.182 Y13.527
X27.201 Y13.700
X27.182 Y13.873
X27.129 Y14.039
X27.041 Y14.190
X26.925 Y14.320
X26.784 Y14.422
X26.624 Y14.493
X26.454 Y14.529
X26.280 Y14.529
G0 Z3.000
G0  X34.540 Y11.989
G0  Z3.000
G01 F400 Z0
G01 F400 Z-0.100
G01F400X34.369 Y11.953
X34.210 Y11.882
X34.069 Y11.780
X33.952 Y11.650
X33.865 Y11.499
X33.811 Y11.333
X33.793 Y11.160
X33.811 Y10.987
X33.865 Y10.821
X33.952 Y10.670
X34.069 Y10.540
X34.210 Y10.438
X34.369 Y10.367
X34.540 Y10.331
X34.714 Y10.331
X34.884 Y10.367
X35.044 Y10.438
X35.185 Y10.540
X35.214 Y10.572
X45.741 Y10.572
X49.473 Y6.826
X49.483 Y6.726
X49.534 Y6.568
X49.617 Y6.425
X49.728 Y6.302
X49.861 Y6.205
X50.013 Y6.138
X50.174 Y6.104
X50.339 Y6.104
X50.501 Y6.138
X50.652 Y6.205
X50.786 Y6.302
X50.897 Y6.425
X50.979 Y6.568
X51.030 Y6.726
X51.047 Y6.890
X51.030 Y7.054
X50.979 Y7.212
X50.897 Y7.355
X50.786 Y7.478
X50.652 Y7.575
X50.501 Y7.642
X50.339 Y7.676
X50.304 Y7.676
X46.379 Y11.601
X46.282 Y11.672
X46.169 Y11.722
X46.048 Y11.748
X35.214 Y11.748
X35.185 Y11.780
X35.044 Y11.882
X34.884 Y11.953
X34.714 Y11.989
X34.540 Y11.989
G0 Z3.000
G0  X14.967 Y11.086
G0  Z3.000
G01 F400 Z0
G01 F400 Z-0.100
G01F400X14.777 Y11.046
X14.599 Y10.966
X14.464 Y10.869
X14.456 Y10.870
X12.658 Y10.870
X12.537 Y10.845
X12.424 Y10.795
X12.327 Y10.724
X9.811 Y8.207
X7.147 Y8.207
X6.503 Y8.587
X5.779 Y8.400
X5.400 Y7.756
X5.587 Y7.033
X6.231 Y6.653
X6.954 Y6.840
X7.068 Y7.033
X10.118 Y7.033
X10.239 Y7.058
X10.352 Y7.108
X10.449 Y7.179
X12.965 Y9.695
X14.170 Y9.686
X14.221 Y9.648
X14.318 Y9.605
X14.441 Y9.468
X14.599 Y9.353
X14.777 Y9.274
X14.967 Y9.234
X15.160 Y9.234
X18.855 Y5.559
X18.951 Y5.488
X19.064 Y5.438
X19.185 Y5.413
X33.498 Y5.413
X33.619 Y5.438
X33.732 Y5.488
X33.829 Y5.559
X35.029 Y6.759
X35.105 Y6.843
X35.166 Y6.950
X35.205 Y7.067
X35.217 Y7.182
X35.230 Y8.050
X35.301 Y8.130
X35.389 Y8.281
X35.442 Y8.447
X35.461 Y8.620
X35.442 Y8.793
X35.389 Y8.959
X35.301 Y9.110
X35.185 Y9.240
X35.044 Y9.342
X34.884 Y9.413
X34.714 Y9.449
X34.540 Y9.449
X34.369 Y9.413
X34.210 Y9.342
X34.069 Y9.240
X33.952 Y9.110
X33.865 Y8.959
X33.811 Y8.793
X33.793 Y8.620
X33.811 Y8.447
X33.865 Y8.281
X33.953 Y8.129
X34.037 Y8.039
X34.037 Y7.434
X33.191 Y6.588
X19.492 Y6.588
X15.987 Y10.074
X15.996 Y10.160
X15.976 Y10.353
X15.915 Y10.539
X15.818 Y10.707
X15.688 Y10.852
X15.530 Y10.966
X15.352 Y11.046
X15.162 Y11.086
X14.967 Y11.086
G0 Z3.000
G0  X49.995 Y25.006
G0  Z3.000
G01 F400 Z0
G01 F400 Z-0.100
G01F400X49.815 Y24.968
X49.646 Y24.893
X49.497 Y24.785
X49.374 Y24.648
X49.282 Y24.488
X49.224 Y24.311
X49.216 Y24.220
X47.804 Y22.808
X36.233 Y22.808
X36.210 Y22.833
X36.050 Y22.950
X35.869 Y23.030
X35.676 Y23.071
X35.478 Y23.071
X35.284 Y23.030
X35.104 Y22.950
X34.944 Y22.833
X34.811 Y22.686
X34.712 Y22.515
X34.651 Y22.327
X34.631 Y22.130
X34.651 Y21.933
X34.712 Y21.745
X34.811 Y21.574
X34.944 Y21.427
X35.104 Y21.311
X35.284 Y21.230
X35.478 Y21.189
X35.676 Y21.189
X35.869 Y21.230
X36.050 Y21.311
X36.210 Y21.427
X36.233 Y21.453
X48.158 Y21.453
X48.297 Y21.482
X48.428 Y21.540
X48.537 Y21.620
X50.097 Y23.160
X51.757 Y21.499
X51.757 Y18.281
X49.789 Y16.313
X49.706 Y16.221
X49.634 Y16.097
X49.590 Y15.962
X49.577 Y15.832
X49.577 Y9.985
X49.544 Y9.948
X49.452 Y9.788
X49.395 Y9.613
X49.376 Y9.430
X49.395 Y9.247
X49.452 Y9.072
X49.544 Y8.912
X49.667 Y8.775
X49.816 Y8.667
X49.985 Y8.592
X50.165 Y8.554
X50.349 Y8.554
X50.529 Y8.592
X50.697 Y8.667
X50.762 Y8.714
X51.757 Y7.719
X51.757 Y6.977
X49.457 Y4.678
X19.012 Y4.678
X16.125 Y7.565
X16.131 Y7.620
X16.108 Y7.833
X16.042 Y8.036
X15.936 Y8.221
X15.793 Y8.380
X15.620 Y8.505
X15.425 Y8.592
X15.216 Y8.636
X15.002 Y8.636
X14.793 Y8.592
X14.598 Y8.505
X14.425 Y8.380
X14.282 Y8.221
X14.176 Y8.036
X14.110 Y7.833
X14.087 Y7.620
X14.110 Y7.408
X14.176 Y7.205
X14.282 Y7.020
X14.425 Y6.861
X14.598 Y6.735
X14.793 Y6.648
X15.002 Y6.604
X15.165 Y6.604
X18.278 Y3.490
X18.389 Y3.410
X18.519 Y3.352
X18.658 Y3.323
X49.811 Y3.323
X49.951 Y3.352
X50.081 Y3.410
X50.191 Y3.490
X52.905 Y6.204
X52.988 Y6.296
X53.059 Y6.419
X53.103 Y6.555
X53.117 Y6.684
X53.117 Y8.012
X53.103 Y8.142
X53.059 Y8.277
X52.988 Y8.401
X52.905 Y8.493
X51.458 Y9.940
X51.347 Y10.020
X51.217 Y10.078
X51.078 Y10.107
X50.937 Y10.107
X50.937 Y15.539
X52.905 Y17.507
X52.988 Y17.600
X53.059 Y17.723
X53.103 Y17.858
X53.117 Y17.988
X53.117 Y21.792
X53.103 Y21.922
X53.059 Y22.057
X52.988 Y22.181
X52.905 Y22.273
X50.957 Y24.235
X50.949 Y24.313
X50.892 Y24.488
X50.800 Y24.648
X50.677 Y24.785
X50.528 Y24.893
X50.359 Y24.968
X50.179 Y25.006
X49.995 Y25.006
G0 Z3.000
G0  X15.134 Y24.755
G0  Z3.000
G01 F400 Z0
G01 F400 Z-0.100
G01F400X14.895 Y24.704
X14.671 Y24.604
X14.473 Y24.460
X14.309 Y24.278
X14.187 Y24.066
X14.111 Y23.833
X14.086 Y23.590
X14.111 Y23.347
X14.187 Y23.114
X14.309 Y22.902
X14.473 Y22.720
X14.671 Y22.576
X14.895 Y22.476
X15.134 Y22.425
X15.379 Y22.425
X15.619 Y22.476
X15.842 Y22.576
X16.040 Y22.720
X16.204 Y22.902
X16.327 Y23.114
X16.402 Y23.347
X16.428 Y23.590
X16.402 Y23.833
X16.327 Y24.066
X16.204 Y24.278
X16.040 Y24.460
X15.842 Y24.604
X15.619 Y24.704
X15.379 Y24.755
X15.134 Y24.755
G0 Z3.000
G0  X6.516 Y23.923
G0  Z3.000
G01 F400 Z0
G01 F400 Z-0.100
G01F400X5.721 Y23.718
X5.303 Y23.010
X5.509 Y22.214
X6.217 Y21.797
X7.013 Y22.003
X7.119 Y22.183
X10.294 Y22.183
X11.936 Y20.540
X12.046 Y20.460
X12.176 Y20.402
X12.316 Y20.373
X14.303 Y20.373
X14.309 Y20.362
X14.473 Y20.180
X14.671 Y20.036
X14.895 Y19.936
X15.134 Y19.885
X15.379 Y19.885
X15.619 Y19.936
X15.842 Y20.036
X16.040 Y20.180
X16.204 Y20.362
X16.327 Y20.574
X16.402 Y20.807
X16.428 Y21.050
X16.402 Y21.293
X16.327 Y21.526
X16.204 Y21.738
X16.040 Y21.920
X15.842 Y22.064
X15.619 Y22.164
X15.379 Y22.215
X15.134 Y22.215
X14.895 Y22.164
X14.671 Y22.064
X14.473 Y21.920
X14.309 Y21.738
X14.303 Y21.728
X12.670 Y21.728
X11.028 Y23.370
X10.917 Y23.450
X10.787 Y23.508
X10.648 Y23.538
X7.171 Y23.538
X6.516 Y23.923
G0 Z3.000
G0  X25.318 Y23.071
G0  Z3.000
G01 F400 Z0
G01 F400 Z-0.100
G01F400X25.124 Y23.030
X24.944 Y22.950
X24.784 Y22.833
X24.651 Y22.686
X24.552 Y22.515
X24.491 Y22.327
X24.472 Y22.146
X21.514 Y19.188
X16.210 Y19.188
X16.204 Y19.198
X16.040 Y19.380
X15.842 Y19.524
X15.619 Y19.624
X15.379 Y19.675
X15.134 Y19.675
X14.895 Y19.624
X14.671 Y19.524
X14.473 Y19.380
X14.309 Y19.198
X14.303 Y19.188
X7.356 Y19.188
X7.224 Y19.696
X6.516 Y20.113
X5.721 Y19.908
X5.303 Y19.200
X5.509 Y18.404
X6.217 Y17.987
X6.418 Y18.038
X6.456 Y18.000
X6.566 Y17.920
X6.696 Y17.862
X6.836 Y17.832
X14.303 Y17.832
X14.309 Y17.822
X14.473 Y17.640
X14.671 Y17.496
X14.895 Y17.396
X15.134 Y17.345
X15.379 Y17.345
X15.447 Y17.360
X22.156 Y10.650
X22.266 Y10.570
X22.396 Y10.512
X22.536 Y10.482
X25.740 Y10.482
X25.748 Y10.473
X25.905 Y10.360
X26.081 Y10.281
X26.270 Y10.241
X26.463 Y10.241
X26.652 Y10.281
X26.829 Y10.360
X26.985 Y10.473
X27.114 Y10.617
X27.211 Y10.784
X27.271 Y10.968
X27.291 Y11.160
X27.271 Y11.352
X27.211 Y11.536
X27.114 Y11.703
X26.985 Y11.847
X26.829 Y11.960
X26.652 Y12.039
X26.463 Y12.079
X26.270 Y12.079
X26.081 Y12.039
X25.905 Y11.960
X25.748 Y11.847
X25.740 Y11.838
X22.890 Y11.838
X16.895 Y17.832
X21.868 Y17.832
X22.007 Y17.862
X22.137 Y17.920
X22.248 Y18.000
X25.437 Y21.189
X25.516 Y21.189
X25.709 Y21.230
X25.890 Y21.311
X26.050 Y21.427
X26.182 Y21.574
X26.281 Y21.745
X26.342 Y21.933
X26.363 Y22.130
X26.342 Y22.327
X26.281 Y22.515
X26.182 Y22.686
X26.050 Y22.833
X25.890 Y22.950
X25.709 Y23.030
X25.516 Y23.071
X25.318 Y23.071
G0 Z3.000
G0  X49.995 Y22.466
G0  Z3.000
G01 F400 Z0
G01 F400 Z-0.100
G01F400X49.815 Y22.428
X49.646 Y22.353
X49.497 Y22.245
X49.374 Y22.108
X49.282 Y21.948
X49.224 Y21.771
X49.216 Y21.680
X41.914 Y14.378
X35.254 Y14.378
X35.245 Y14.387
X35.089 Y14.501
X34.912 Y14.579
X34.723 Y14.619
X34.530 Y14.619
X34.341 Y14.579
X34.165 Y14.501
X34.008 Y14.387
X33.879 Y14.243
X33.782 Y14.076
X33.723 Y13.892
X33.703 Y13.700
X33.723 Y13.508
X33.782 Y13.324
X33.879 Y13.157
X34.008 Y13.013
X34.165 Y12.899
X34.341 Y12.821
X34.530 Y12.781
X34.723 Y12.781
X34.912 Y12.821
X35.089 Y12.899
X35.245 Y13.013
X35.254 Y13.023
X42.268 Y13.023
X42.407 Y13.052
X42.537 Y13.110
X42.648 Y13.190
X50.171 Y20.714
X50.179 Y20.714
X50.359 Y20.752
X50.528 Y20.827
X50.677 Y20.935
X50.800 Y21.072
X50.892 Y21.232
X50.949 Y21.407
X50.968 Y21.590
X50.949 Y21.773
X50.892 Y21.948
X50.800 Y22.108
X50.677 Y22.245
X50.528 Y22.353
X50.359 Y22.428
X50.179 Y22.466
X49.995 Y22.466
G0 Z3.000
G0  X26.270 Y17.159
G0  Z3.000
G01 F400 Z0
G01 F400 Z-0.100
G01F400X26.081 Y17.119
X25.905 Y17.041
X25.748 Y16.927
X25.619 Y16.783
X25.522 Y16.616
X25.463 Y16.432
X25.443 Y16.240
X25.463 Y16.048
X25.522 Y15.864
X25.619 Y15.697
X25.748 Y15.553
X25.905 Y15.440
X26.081 Y15.361
X26.270 Y15.321
X26.463 Y15.321
X26.652 Y15.361
X26.829 Y15.440
X26.985 Y15.553
X26.994 Y15.563
X34.000 Y15.563
X34.008 Y15.553
X34.165 Y15.440
X34.341 Y15.361
X34.530 Y15.321
X34.723 Y15.321
X34.912 Y15.361
X35.089 Y15.440
X35.245 Y15.553
X35.375 Y15.697
X35.471 Y15.864
X35.531 Y16.048
X35.551 Y16.240
X35.531 Y16.432
X35.471 Y16.616
X35.375 Y16.783
X35.245 Y16.927
X35.089 Y17.041
X34.912 Y17.119
X34.723 Y17.159
X34.530 Y17.159
X34.341 Y17.119
X34.165 Y17.041
X34.008 Y16.927
X34.000 Y16.918
X26.994 Y16.918
X26.985 Y16.927
X26.829 Y17.041
X26.652 Y17.119
X26.463 Y17.159
X26.270 Y17.159
G0 Z3.000
G0  X6.516 Y16.303
G0  Z3.000
G01 F400 Z0
G01 F400 Z-0.100
G01F400X5.721 Y16.098
X5.303 Y15.389
X5.509 Y14.594
X6.217 Y14.177
X6.418 Y14.229
X8.539 Y12.107
X7.171 Y12.107
X6.516 Y12.493
X5.721 Y12.288
X5.303 Y11.580
X5.509 Y10.784
X6.217 Y10.367
X7.013 Y10.572
X7.119 Y10.753
X10.938 Y10.753
X11.077 Y10.782
X11.207 Y10.840
X11.318 Y10.920
X11.720 Y11.322
X16.154 Y11.322
X19.366 Y8.110
X19.476 Y8.030
X19.606 Y7.972
X19.746 Y7.943
X25.740 Y7.943
X25.748 Y7.933
X25.905 Y7.820
X26.081 Y7.741
X26.270 Y7.701
X26.463 Y7.701
X26.652 Y7.741
X26.829 Y7.820
X26.985 Y7.933
X27.114 Y8.077
X27.211 Y8.244
X27.271 Y8.428
X27.291 Y8.620
X27.271 Y8.812
X27.211 Y8.996
X27.114 Y9.163
X26.985 Y9.307
X26.829 Y9.421
X26.652 Y9.499
X26.463 Y9.539
X26.270 Y9.539
X26.081 Y9.499
X25.905 Y9.421
X25.748 Y9.307
X25.740 Y9.298
X20.100 Y9.298
X16.888 Y12.510
X16.777 Y12.590
X16.647 Y12.648
X16.508 Y12.678
X11.366 Y12.678
X11.226 Y12.648
X11.096 Y12.590
X10.986 Y12.510
X10.584 Y12.107
X10.460 Y12.107
X7.414 Y15.154
X7.224 Y15.886
X6.516 Y16.303
G0 Z3.000
G0  X26.270 Y14.619
G0  Z3.000
G01 F400 Z0
G01 F400 Z-0.100
G01F400X26.081 Y14.579
X25.905 Y14.501
X25.748 Y14.387
X25.619 Y14.243
X25.522 Y14.076
X25.463 Y13.892
X25.443 Y13.700
X25.463 Y13.508
X25.522 Y13.324
X25.619 Y13.157
X25.748 Y13.013
X25.905 Y12.899
X26.081 Y12.821
X26.270 Y12.781
X26.463 Y12.781
X26.652 Y12.821
X26.829 Y12.899
X26.985 Y13.013
X27.114 Y13.157
X27.211 Y13.324
X27.271 Y13.508
X27.291 Y13.700
X27.271 Y13.892
X27.211 Y14.076
X27.114 Y14.243
X26.985 Y14.387
X26.829 Y14.501
X26.652 Y14.579
X26.463 Y14.619
X26.270 Y14.619
G0 Z3.000
G0  X34.530 Y12.079
G0  Z3.000
G01 F400 Z0
G01 F400 Z-0.100
G01F400X34.341 Y12.039
X34.165 Y11.960
X34.008 Y11.847
X33.879 Y11.703
X33.782 Y11.536
X33.723 Y11.352
X33.703 Y11.160
X33.723 Y10.968
X33.782 Y10.784
X33.879 Y10.617
X34.008 Y10.473
X34.165 Y10.360
X34.341 Y10.281
X34.530 Y10.241
X34.723 Y10.241
X34.912 Y10.281
X35.089 Y10.360
X35.245 Y10.473
X35.254 Y10.482
X45.703 Y10.482
X49.387 Y6.785
X49.395 Y6.707
X49.452 Y6.532
X49.544 Y6.372
X49.667 Y6.235
X49.816 Y6.127
X49.985 Y6.052
X50.165 Y6.014
X50.349 Y6.014
X50.529 Y6.052
X50.698 Y6.127
X50.846 Y6.235
X50.970 Y6.372
X51.062 Y6.532
X51.119 Y6.707
X51.138 Y6.890
X51.119 Y7.073
X51.062 Y7.248
X50.970 Y7.408
X50.846 Y7.545
X50.698 Y7.653
X50.529 Y7.728
X50.349 Y7.766
X50.341 Y7.766
X46.438 Y11.670
X46.327 Y11.750
X46.197 Y11.808
X46.058 Y11.838
X35.254 Y11.838
X35.245 Y11.847
X35.089 Y11.960
X34.912 Y12.039
X34.723 Y12.079
X34.530 Y12.079
G0 Z3.000
G0  X14.958 Y11.176
G0  Z3.000
G01 F400 Z0
G01 F400 Z-0.100
G01F400X14.749 Y11.132
X14.554 Y11.045
X14.438 Y10.960
X12.649 Y10.960
X12.509 Y10.931
X12.379 Y10.873
X12.269 Y10.793
X9.774 Y8.298
X7.171 Y8.298
X6.516 Y8.683
X5.721 Y8.478
X5.303 Y7.770
X5.509 Y6.974
X6.217 Y6.557
X7.013 Y6.763
X7.119 Y6.942
X10.128 Y6.942
X10.267 Y6.972
X10.397 Y7.030
X10.508 Y7.110
X13.002 Y9.605
X14.140 Y9.596
X14.176 Y9.570
X14.263 Y9.531
X14.381 Y9.401
X14.554 Y9.275
X14.749 Y9.188
X14.958 Y9.144
X15.123 Y9.144
X18.796 Y5.490
X18.906 Y5.410
X19.036 Y5.352
X19.176 Y5.323
X33.508 Y5.323
X33.647 Y5.352
X33.777 Y5.410
X33.888 Y5.490
X35.095 Y6.697
X35.178 Y6.790
X35.249 Y6.913
X35.293 Y7.048
X35.306 Y7.176
X35.319 Y8.015
X35.375 Y8.077
X35.471 Y8.244
X35.531 Y8.428
X35.551 Y8.620
X35.531 Y8.812
X35.471 Y8.996
X35.375 Y9.163
X35.245 Y9.307
X35.089 Y9.421
X34.912 Y9.499
X34.723 Y9.539
X34.530 Y9.539
X34.341 Y9.499
X34.165 Y9.421
X34.008 Y9.307
X33.879 Y9.163
X33.782 Y8.996
X33.723 Y8.812
X33.703 Y8.620
X33.723 Y8.428
X33.782 Y8.244
X33.880 Y8.075
X33.947 Y8.004
X33.947 Y7.471
X33.154 Y6.678
X19.529 Y6.678
X16.081 Y10.107
X16.086 Y10.160
X16.064 Y10.372
X15.998 Y10.575
X15.891 Y10.760
X15.748 Y10.919
X15.575 Y11.045
X15.380 Y11.132
X15.171 Y11.176
X14.958 Y11.176
G0 Z3.000
M05
(  )
T1 M06
( Drilling )
M03 S10000
G00 X6.367 Y22.860
G0  Z3.000
G01 F250.0 Z-1.780
G00 Z3.000
G00 X6.367 Y15.240
G0  Z3.000
G01 F250.0 Z-1.780
G00 Z3.000
G00 X6.367 Y11.430
G0  Z3.000
G01 F250.0 Z-1.780
G00 Z3.000
G00 X6.367 Y19.050
G0  Z3.000
G01 F250.0 Z-1.780
G00 Z3.000
G00 X6.367 Y7.620
G0  Z3.000
G01 F250.0 Z-1.780
G00 Z3.000
G00 X15.257 Y23.590
G0  Z3.000
G01 F250.0 Z-1.780
G00 Z3.000
G00 X15.257 Y21.050
G0  Z3.000
G01 F250.0 Z-1.780
G00 Z3.000
G00 X15.257 Y18.510
G0  Z3.000
G01 F250.0 Z-1.780
G00 Z3.000
G00 X15.065 Y10.160
G0  Z3.000
G01 F250.0 Z-1.780
G00 Z3.000
G00 X15.109 Y7.620
G0  Z3.000
G01 F250.0 Z-1.780
G00 Z3.000
G00 X35.577 Y22.130
G0  Z3.000
G01 F250.0 Z-1.780
G00 Z3.000
G00 X25.417 Y22.130
G0  Z3.000
G01 F250.0 Z-1.780
G00 Z3.000
G00 X34.627 Y16.240
G0  Z3.000
G01 F250.0 Z-1.780
G00 Z3.000
G00 X34.627 Y13.700
G0  Z3.000
G01 F250.0 Z-1.780
G00 Z3.000
G00 X34.627 Y11.160
G0  Z3.000
G01 F250.0 Z-1.780
G00 Z3.000
G00 X34.627 Y8.620
G0  Z3.000
G01 F250.0 Z-1.780
G00 Z3.000
G00 X26.367 Y8.620
G0  Z3.000
G01 F250.0 Z-1.780
G00 Z3.000
G00 X26.367 Y11.160
G0  Z3.000
G01 F250.0 Z-1.780
G00 Z3.000
G00 X26.367 Y13.700
G0  Z3.000
G01 F250.0 Z-1.780
G00 Z3.000
G00 X26.367 Y16.240
G0  Z3.000
G01 F250.0 Z-1.780
G00 Z3.000
G00 X50.087 Y21.590
G0  Z3.000
G01 F250.0 Z-1.780
G00 Z3.000
G00 X50.087 Y24.130
G0  Z3.000
G01 F250.0 Z-1.780
G00 Z3.000
G00 X50.257 Y9.430
G0  Z3.000
G01 F250.0 Z-1.780
G00 Z3.000
G00 X50.257 Y6.890
G0  Z3.000
G01 F250.0 Z-1.780
G00 Z3.000
M05
(  )
T112 M06
( Routing )
M03 S10000
G0  X51.547 Y29.241
G0  Z3.000
G01 F200 Z0
G01 F200 Z-0.790
G01F200X51.291 Y29.187
X51.053 Y29.081
X50.842 Y28.927
X50.835 Y28.920
X1.580 Y28.920
X1.391 Y28.880
X1.215 Y28.801
X1.058 Y28.687
X0.929 Y28.544
X0.832 Y28.376
X0.772 Y28.192
X0.757 Y28.042
X0.757 Y0.958
X0.772 Y0.808
X0.832 Y0.624
X0.929 Y0.456
X1.058 Y0.313
X1.215 Y0.199
X1.391 Y0.120
X1.580 Y0.080
X50.835 Y0.080
X50.842 Y0.073
X51.053 Y-0.081
X51.291 Y-0.187
X51.547 Y-0.241
X51.807 Y-0.241
X52.063 Y-0.187
X52.301 Y-0.081
X52.512 Y0.073
X52.661 Y0.238
X57.709 Y7.306
X57.817 Y7.492
X57.898 Y7.741
X57.921 Y7.958
X57.921 Y21.042
X57.898 Y21.259
X57.817 Y21.508
X57.709 Y21.695
X52.661 Y28.762
X52.512 Y28.927
X52.301 Y29.081
X52.063 Y29.187
X51.807 Y29.241
X51.547 Y29.241
G0 Z3.000
M03 S10000
G0  X51.547 Y29.241
G0  Z3.000
G01 F200 Z0
G01 F200 Z-1.580
G01F200X51.291 Y29.187
X51.053 Y29.081
X50.842 Y28.927
X50.835 Y28.920
X1.580 Y28.920
X1.391 Y28.880
X1.215 Y28.801
X1.058 Y28.687
X0.929 Y28.544
X0.832 Y28.376
X0.772 Y28.192
X0.757 Y28.042
X0.757 Y0.958
X0.772 Y0.808
X0.832 Y0.624
X0.929 Y0.456
X1.058 Y0.313
X1.215 Y0.199
X1.391 Y0.120
X1.580 Y0.080
X50.835 Y0.080
X50.842 Y0.073
X51.053 Y-0.081
X51.291 Y-0.187
X51.547 Y-0.241
X51.807 Y-0.241
X52.063 Y-0.187
X52.301 Y-0.081
X52.512 Y0.073
X52.661 Y0.238
X57.709 Y7.306
X57.817 Y7.492
X57.898 Y7.741
X57.921 Y7.958
X57.921 Y21.042
X57.898 Y21.259
X57.817 Y21.508
X57.709 Y21.695
X52.661 Y28.762
X52.512 Y28.927
X52.301 Y29.081
X52.063 Y29.187
X51.807 Y29.241
X51.547 Y29.241
G0 Z3.000
G00 Z3.000
M05
M30
%